X:1
T:Be a Light for Jesus (Sims)
T:Be a Light for Jesus (Sims)
T:Benjamin Franklin Sims
T:Benjamin Franklin Sims, 1919
T:Public Domain Courtesy of the Cyber Hymnal™
T:Public Domain Courtesy of the Cyber Hymnal™
C:Benjamin Franklin Sims
Z:Public Domain
Z:Courtesy of the Cyber Hymnal™
%%score ( 1 2 ) ( 3 4 )
L:1/8
Q:1/4=102
M:4/4
K:E
V:1 treble 
V:2 treble 
V:3 bass 
V:4 bass 
V:1
 E>[EF] | [EG]2 [EG]2 [EF]EE[EG] | [EB]2 [Ec]2 [EB]2 E>[EF] | [EG]2 [EG]2 [B,E][B,E][CE][CE] | %4
w: 1.~O, ye|Chris- tian sol- diers, as you|march a- long, Be a|light for Je- sus ev- ery|
w: 2.~Keep your|lamps trimmed, burn- ing so that|all may see, Be a|light for Je- sus ev- ery|
w: 3.~Thou- sands|grope in dark- ness that can|nev- er see, Be a|light for Je- sus ev- ery|
w: 4.~Keep the|light bright, shin- ing all the|world a- round, Be a|light for Je- sus ev- ery|
 [DF]6 E>[EF] | [EG]2 [EG]2 [EF]EE[EG] | [EB]2 [Ec]2 [EB]2 E>[EF] | [EG]2 [EG]2 [EF]E[EG][DF] | %8
w: day; Keep His|ban- ner hoist- ed all the|whole day long Be a|light for Je- sus ev- ery|
w: day; Let the|world see Je- sus and from|sin be free, Be a|light for Je- sus ev- ery|
w: day; Un- til|we point them up to Mount|Cal- va- ry, Be a|light for Je- sus ev- ery|
w: day; ’Till, re-|leased from dark- ness, all the|Lord have found, Be a|light for Je- sus ev- ery|
 E6 ||"^Refrain" E>F | G6 E2 G>F | E6 E>[EF] | [EG]2 [EG]2 [EB][EG][DF][Ec] | [DB]6 G>B | %14
w: day.||||||
w: day.|Be a|light, be a light,|* Be a|light for Je- sus ev- ery|day; Be a|
w: day.||||||
w: day.||||||
 e6 [Bd]>[Ac] | B6 [Ac]>[Ac] | [GB]2 [EG]2 [EF]E[EG][DF] | E6 |] %18
w: ||||
w: light, be a|light, Be a|light for Je- sus ev- ery|day.|
w: ||||
w: ||||
V:2
 E3/2 x/ | x5 EE x | x6 E3/2 x/ | x8 | x6 E3/2 x/ | x5 EE x | x6 E3/2 x/ | x5 E x2 | E6 || x2 | %10
 E2 E>E x6 | (E2 C>C B,2) E3/2 x/ | x8 | x8 | (G2 B>A G2) x2 | (GGF>A G2) x2 | x5 E x2 | E6 |] %18
V:3
 [E,G,]>[E,A,] | [E,B,]2 [E,B,]2 [E,A,][E,G,][E,G,][E,B,] | [E,G,]2 [E,A,]2 [E,G,]2 [E,G,]>[E,A,] | %3
w: |||
 [E,B,]2 [E,B,]2 [E,G,][E,G,][C,G,][C,G,] | [B,,B,]6 [E,G,]>[E,A,] | %5
w: ||
 [E,B,]2 [E,B,]2 [E,A,][E,G,][E,G,][E,B,] | [E,G,]2 [E,A,]2 [E,G,]2 [E,G,]>[E,A,] | %7
w: ||
 [E,B,]2 [E,B,]2 [E,A,][E,G,][B,,B,][B,,A,] | [E,G,]6 || z2 | [E,B,]2 [C,C]>[C,C] [E,B,]2 z2 x2 | %11
w: |||Bright, shin- ing light,|
 [C,G,]2 [A,,A,]>[A,,A,] [E,G,]2 [E,G,]>[E,A,] | [E,B,]2 [E,B,]2 [E,G,][E,B,][F,B,][F,^A,] | %13
w: bright, shin- ing light, * *||
 B,2 B,>A, F,2 z2 | [E,B,]2 [E,D]>[E,C] [E,B,]2 z2 | [E,E][E,E] [B,,D]>[B,,F] [E,E]2 [A,E]>[A,E] | %16
w: * ev- ery day,|Bright, shin- ing light,|be a shin- ing light, * *|
 [E,E]2 [E,B,]2 [E,A,][E,G,][B,,B,][B,,A,] | [E,G,]6 |] %18
w: ||
V:4
 x2 | x8 | x8 | x8 | x8 | x8 | x8 | x8 | x6 || x2 | x10 | x8 | x8 | B,,6 x2 | x8 | x8 | x8 | x6 |] %18

